assets/images/icons/src/object-ungroup.svg

<?xml version="1.0" encoding="utf-8"?>
<!-- Generated by IcoMoon.io -->
<!DOCTYPE svg PUBLIC "-//W3C//DTD SVG 1.1//EN" "http://www.w3.org/Graphics/SVG/1.1/DTD/svg11.dtd">
<svg version="1.1" xmlns="http://www.w3.org/2000/svg" xmlns:xlink="http://www.w3.org/1999/xlink" width="18" height="14" viewBox="0 0 18 14">
<path fill="#444444" d="M18 6h-1v5h1v3h-3v-1h-7v1h-3v-3h1v-1h-3v1h-3v-3h1v-5h-1v-3h3v1h7v-1h3v3h-1v1h3v-1h3v3zM16 4v1h1v-1h-1zM11 1v1h1v-1h-1zM1 1v1h1v-1h-1zM2 10v-1h-1v1h1zM12 9h-1v1h1v-1zM3 9h7v-1h1v-5h-1v-1h-7v1h-1v5h1v1zM7 13v-1h-1v1h1zM17 13v-1h-1v1h1zM16 11v-5h-1v-1h-3v3h1v3h-3v-1h-3v1h1v1h7v-1h1z"></path>
</svg>

<svg xmlns="http://www.w3.org/2000/svg" width="18" height="14" viewBox="0 0 18 14"><path fill="#444" d="M18 6h-1v5h1v3h-3v-1H8v1H5v-3h1v-1H3v1H0V8h1V3H0V0h3v1h7V0h3v3h-1v1h3V3h3v3zm-2-2v1h1V4h-1zm-5-3v1h1V1h-1zM1 1v1h1V1H1zm1 9V9H1v1h1zm10-1h-1v1h1V9zM3 9h7V8h1V3h-1V2H3v1H2v5h1v1zm4 4v-1H6v1h1zm10 0v-1h-1v1h1zm-1-2V6h-1V5h-3v3h1v3h-3v-1H7v1h1v1h7v-1h1z"/></svg>
